app/dist/common/images/advance-international-company-for-communication-and-informat.svg

<svg height="18" viewBox="0 0 18 18" width="18" xmlns="http://www.w3.org/2000/svg"><path d="m0 0h18v18h-18z" fill="#f0f3fa"/><path d="m6.78 6h1.06l1.16 6h-1.39l-.25-2h-1.62l-1.14 2h-1.6zm-.54 3h.97l-.22-1.53z" fill="#413e3c"/><g fill="#2e9e3a"><path d="m9.96 6.14-.68.86h2.43l-.95 4.86h1.11l.97-4.86h1.88l.16-.86z"/><path d="m11.96 12h-1.36l.94-5h-2.54l.9-1h5.1l-.21 1h-1.89l-.95 5zm-1.08-.25h.85l.96-4.82h1.89l.11-.68h-4.65l-.52.68h2.33z"/></g></svg>

<!-- by TradingView --><svg width="18" height="18" viewBox="0 0 18 18" xmlns="http://www.w3.org/2000/svg"><path fill="#F0F3FA" d="M0 0h18v18H0z"/><path d="M6.78 6h1.06L9 12H7.61l-.25-2H5.74L4.6 12H3l3.78-6Zm-.54 3h.97l-.22-1.53L6.24 9Z" fill="#413E3C"/><path d="M9.96 6.14 9.28 7h2.43l-.95 4.86h1.11L12.84 7h1.88l.16-.86H9.96Z" fill="#2E9E3A"/><path d="M11.96 12H10.6l.94-5H9l.9-1H15l-.21 1H12.9l-.95 5Zm-1.08-.25h.85l.96-4.82h1.89l.11-.68h-4.65l-.52.68h2.33l-.97 4.82Z" fill="#2E9E3A"/></svg>
